X: 39433
T: Tarantella
R: jig
M: 6/8
K: Aminor
EAc|:ecA ecA|^G2G EGB|dcB dcB|A2A EAc|
ecA ecA|^G2G EGB|dcB dcB|1 A3 EAc:|2 Aee eee||
|:dEE dEE|cEE cEE|efe dcB|cee eee|
dEE dEE|cEE cEE|efe dcB|1 Aee eee:|2 A3 G2G||
|:cBc e^de|g2g gag|f2d def|e2c G2G|
cBc e^de|g2g gag|bag fed|1 c3 G2G:|2 c2 z3||

